X: 1
T: The Cameronian
S: Davy Muir
L: 1/8
M: C
R: reel
K: Dmaj
B |: A2 FA DAFA| GFEF GBdB| A2 FA DAFA| GBAG FD D2|
BA F2 DF D2|  GFAF GBdB| A2 FA DAFA| GBAG FD D2:|
B |:Addc d2 dA| Bdef gfed| cAeA fAeA| Bdef gfeg|
faeg faeg| fddc defg| afge fdec| dBAG FD D2 :|
